icon/ir/secure-window.svg

<svg viewBox="0 0 24 24" stroke-width="1.5" fill="none" xmlns="http://www.w3.org/2000/svg" height="1em" width="1em">
  <path d="M13 21H4C2.89543 21 2 20.1046 2 19V5C2 3.89543 2.89543 3 4 3H20C21.1046 3 22 3.89543 22 5V12" stroke="currentColor" stroke-linecap="round"/>
  <path d="M2 7L22 7" stroke="currentColor" stroke-linecap="round" stroke-linejoin="round"/>
  <path d="M5 5.01L5.01 4.99889" stroke="currentColor" stroke-linecap="round" stroke-linejoin="round"/>
  <path d="M8 5.01L8.01 4.99889" stroke="currentColor" stroke-linecap="round" stroke-linejoin="round"/>
  <path d="M11 5.01L11.01 4.99889" stroke="currentColor" stroke-linecap="round" stroke-linejoin="round"/>
  <path d="M18.9923 14.125L21.5477 14.774C21.8137 14.8416 22.0013 15.0833 21.9931 15.3576C21.8214 21.1159 18.5 22 18.5 22C18.5 22 15.1786 21.1159 15.0069 15.3576C14.9987 15.0833 15.1863 14.8416 15.4523 14.774L18.0077 14.125C18.3308 14.043 18.6692 14.043 18.9923 14.125Z" stroke="currentColor" stroke-linecap="round" stroke-linejoin="round"/>
</svg>

<svg width="24" height="24" stroke-width="1.5" fill="none" xmlns="http://www.w3.org/2000/svg"><path d="M13 21H4a2 2 0 0 1-2-2V5a2 2 0 0 1 2-2h16a2 2 0 0 1 2 2v7" stroke="currentColor" stroke-linecap="round"/><path d="M2 7h20M5 5.01l.01-.011M8 5.01l.01-.011M11 5.01l.01-.011M18.992 14.125l2.556.649c.266.068.453.31.445.584C21.821 21.116 18.5 22 18.5 22s-3.321-.884-3.493-6.642a.588.588 0 0 1 .445-.584l2.556-.649c.323-.082.661-.082.984 0Z" stroke="currentColor" stroke-linecap="round" stroke-linejoin="round"/></svg>
